tools/download-figma-icons/icons/outlined-medium/connector-type1.svg

<svg width="24" height="24" viewBox="0 0 24 24" fill="none" xmlns="http://www.w3.org/2000/svg">
<path fill-rule="evenodd" clip-rule="evenodd" d="M2.25 11.25C2.25 16.6275 6.6225 21 12 21C17.3775 21 21.75 16.6275 21.75 11.25C21.75 5.8725 17.3775 1.5 12 1.5C6.6225 1.5 2.25 5.8725 2.25 11.25ZM0.75 11.25C0.75 5.0475 5.7975 0 12 0C18.2025 0 23.25 5.0475 23.25 11.25C23.25 16.4175 19.7475 20.7825 15 22.095V23.25C15 23.6625 14.6625 24 14.25 24H9.75C9.3375 24 9 23.6625 9 23.25V22.095C4.2525 20.7825 0.75 16.4175 0.75 11.25ZM8.25 9.75C9.49275 9.75 10.5 8.74275 10.5 7.5C10.5 6.25725 9.49275 5.25 8.25 5.25C7.00725 5.25 6 6.25725 6 7.5C6 8.74275 7.00725 9.75 8.25 9.75ZM15.75 9.75C16.9928 9.75 18 8.74275 18 7.5C18 6.25725 16.9928 5.25 15.75 5.25C14.5072 5.25 13.5 6.25725 13.5 7.5C13.5 8.74275 14.5072 9.75 15.75 9.75ZM14.25 16.5C14.25 17.7428 13.2428 18.75 12 18.75C10.7572 18.75 9.75 17.7428 9.75 16.5C9.75 15.2572 10.7572 14.25 12 14.25C13.2428 14.25 14.25 15.2572 14.25 16.5ZM6.75 14.25C7.578 14.25 8.25 13.578 8.25 12.75C8.25 11.922 7.578 11.25 6.75 11.25C5.922 11.25 5.25 11.922 5.25 12.75C5.25 13.578 5.922 14.25 6.75 14.25ZM18.75 12.75C18.75 13.578 18.078 14.25 17.25 14.25C16.422 14.25 15.75 13.578 15.75 12.75C15.75 11.922 16.422 11.25 17.25 11.25C18.078 11.25 18.75 11.922 18.75 12.75Z" fill="black"/>
</svg>

<svg width="24" height="24" viewBox="0 0 24 24" fill="none" xmlns="http://www.w3.org/2000/svg"><path fill-rule="evenodd" clip-rule="evenodd" d="M2.25 11.25C2.25 16.628 6.622 21 12 21s9.75-4.372 9.75-9.75S17.378 1.5 12 1.5s-9.75 4.372-9.75 9.75Zm-1.5 0C.75 5.048 5.798 0 12 0c6.203 0 11.25 5.048 11.25 11.25 0 5.168-3.503 9.532-8.25 10.845v1.155c0 .413-.338.75-.75.75h-4.5a.752.752 0 0 1-.75-.75v-1.155C4.253 20.782.75 16.418.75 11.25Zm7.5-1.5a2.25 2.25 0 1 0 0-4.5 2.25 2.25 0 0 0 0 4.5Zm7.5 0a2.25 2.25 0 1 0 0-4.5 2.25 2.25 0 0 0 0 4.5Zm-1.5 6.75a2.25 2.25 0 1 1-4.5 0 2.25 2.25 0 0 1 4.5 0Zm-7.5-2.25a1.5 1.5 0 1 0-.001-3.001 1.5 1.5 0 0 0 .001 3.001Zm12-1.5a1.5 1.5 0 1 1-3.001-.001 1.5 1.5 0 0 1 3.001.001Z" fill="currentColor"/></svg>
